app/dist/common/images/multi-ways-holdings-limited.svg

<svg height="18" viewBox="0 0 18 18" width="18" xmlns="http://www.w3.org/2000/svg"><path d="m0 0h18v18h-18z" fill="#f0f3fa"/><g fill="#f96408"><path d="m12.33 4.5h-6.66c-.74 0-1.17.49-1.17 1.27v6.46c0 .78.43 1.27 1.17 1.27h6.66c.74 0 1.17-.49 1.17-1.27v-6.46c0-.78-.43-1.27-1.17-1.27zm-6.66-.5c-.92 0-1.67.8-1.67 1.77v6.46c0 .97.75 1.77 1.67 1.77h6.66c.92 0 1.67-.8 1.67-1.77v-6.46c0-.97-.75-1.77-1.67-1.77z" fill-rule="evenodd"/><path d="m5 8.15a2.15 2.15 0 1 1 4.3 0v1.85h-.7v-1.85c0-.68-.47-1.25-1.1-1.4v3.25h-.7v-3.26c-.63.16-1.1.73-1.1 1.41v1.85h-.7z"/><path d="m8.6 9.8a2.2 2.2 0 0 0 4.4 0v-1.8h-.72v1.82c0 .69-.48 1.27-1.12 1.43v-3.25h-.72v3.26a1.49 1.49 0 0 1 -1.13-1.44v-1.82h-.71z"/></g></svg>

<!-- by TradingView --><svg width="18" height="18" viewBox="0 0 18 18" xmlns="http://www.w3.org/2000/svg"><path fill="#F0F3FA" d="M0 0h18v18H0z"/><path fill-rule="evenodd" d="M12.33 4.5H5.67c-.74 0-1.17.49-1.17 1.27v6.46c0 .78.43 1.27 1.17 1.27h6.66c.74 0 1.17-.49 1.17-1.27V5.77c0-.78-.43-1.27-1.17-1.27ZM5.67 4C4.75 4 4 4.8 4 5.77v6.46C4 13.2 4.75 14 5.67 14h6.66c.92 0 1.67-.8 1.67-1.77V5.77C14 4.8 13.25 4 12.33 4H5.67Z" fill="#F96408"/><path d="M5 8.15a2.15 2.15 0 1 1 4.3 0V10h-.7V8.15c0-.68-.47-1.25-1.1-1.4V10h-.7V6.74c-.63.16-1.1.73-1.1 1.41V10H5V8.15Z" fill="#F96408"/><path d="M8.6 9.8a2.2 2.2 0 0 0 4.4 0V8h-.72v1.82c0 .69-.48 1.27-1.12 1.43V8h-.72v3.26a1.49 1.49 0 0 1-1.13-1.44V8H8.6v1.8Z" fill="#F96408"/></svg>
